X:1169
T:March of Lord McDonald's Highlanders.
M:C
L:1/8
Q:1/2=56 "Slow"
I: :: ::
Z:Jack Campin * www.campin.me.uk * 2009
K:D
F>E|D2  d>e f2{A}G>F|   E2    e>f g2 A>G| F2  a2  (gf)``ed |{g}f2 e>e e2
F>E|D2  d>e f2{A}G>F|{F}E2    e>f g2 f>e|(da)`ba  (gf)``ed |   B2 d>d d2:|
d>e|f>d e>B d>B  A>F|   A2    d>d d2 d>e|(fg)(ab) (af)``ed |   b2 e>e e2
d>e|f>a e>f d>f  B>A|   A2{de}f>e d2 F2 |(GA)(BG) (Af) (ed)|   B2 d>d d2:|

